public/img/home/solutions/icon-solutions-08.svg

<svg fill="none" height="87" viewBox="0 0 109 87" width="109" xmlns="http://www.w3.org/2000/svg"><g fill="#fff"><path d="m91.0557 83.1113v-10.1029c0-.2449-.1992-.4443-.4438-.4443h-3.5966v-12.1605l.2942-.2272c.0428-.0328.0807-.0774.1109-.1296l3.9521-6.8536c.0589-.1002.0732-.2155.0421-.3358-.0295-.1128-.1009-.2054-.206-.266l-49.6703-28.692 5.3852-9.3454c.9363-1.6217 1.1834-3.5169.6951-5.33551-.4892-1.82113-1.65-3.34014-3.268-4.27679-1.0666-.61602-2.2727-.9417-3.4881-.9417-.6169 0-1.2364.08247-1.8416.24573-1.8205.49063-3.336 1.65282-4.269 3.27197l-14.4846 25.1196c-.9363 1.6217-1.1834 3.5169-.6951 5.3355.4892 1.8211 1.6499 3.3401 3.2671 4.2768.6716.3871 1.3902.6589 2.1366.8062l.6094.1212v39.9343h-9.5853v.8887h78v-.8887zm-.6767-29.9754-3.5066 6.0828-31.5774-18.2407-.0311-.0228c-.0353-.0252-.0622-.0387-.079-.0462l-.0403-.0177-17.5509-10.1365 3.5067-6.0828 49.2795 28.4631zm-42.7503 8.8254 3.6705-9.656h7.3856l3.6529 9.656zm15.0461.8912 3.6739 9.7116h-22.7495l3.6916-9.7116h15.3831zm-11.0402-11.4392 3.3604-8.8498 3.3503 8.8498zm-28.3498-9.9346c-1.4146-.8163-2.4283-2.1426-2.8536-3.7348-.4253-1.5931-.2101-3.2493.606-4.6622l14.4847-25.11881c.8153-1.41634 2.1407-2.43126 3.7276-2.85624.5237-.14307 1.0667-.21544 1.613-.21544 1.0641 0 2.1173.28444 3.046.8222 2.9318 1.69405 3.9395 5.46169 2.2467 8.39709l-14.4846 25.1187c-.8187 1.4197-2.1433 2.4363-3.7294 2.8622-.5253.1405-1.0641.212-1.6012.212-1.0674 0-2.1248-.2853-3.0561-.8239zm3.1889 41.6326v-39.8881l.6707-.0765c2.2081-.2525 4.1875-1.5502 5.2961-3.4706l4.7027-8.1555 17.3029 9.9943-15.8068 41.5964zm13.1146 0 3.6739-9.656h23.421l3.6529 9.656zm42.5629-10.1029v10.1029h-10.8653l-15.4277-40.7809 30.2645 17.4833v12.7495h-3.5277c-.2446 0-.4438.1995-.4438.4444zm8.0144 10.1029h-7.1243v-9.6585h7.1243z"/><path d="m28.933 36.0388c0-1.408-1.1439-2.5525-2.5492-2.5525-1.4054 0-2.5493 1.1454-2.5493 2.5525 0 1.407 1.1439 2.5524 2.5493 2.5524 1.4053 0 2.5492-1.1454 2.5492-2.5524zm-2.5501 1.7117c-.9422 0-1.7088-.7675-1.7088-1.7109s.7666-1.7109 1.7088-1.7109 1.7088.7675 1.7088 1.7109-.7666 1.7109-1.7088 1.7109z"/></g></svg>

<svg width="109" height="87" viewBox="0 0 109 87" fill="none" xmlns="http://www.w3.org/2000/svg">
<path d="M91.0557 83.1113V73.0084C91.0557 72.7635 90.8565 72.5641 90.6119 72.5641H87.0153V60.4036L87.3095 60.1764C87.3523 60.1436 87.3902 60.099 87.4204 60.0468L91.3725 53.1932C91.4314 53.093 91.4457 52.9777 91.4146 52.8574C91.3851 52.7446 91.3137 52.652 91.2086 52.5914L41.5383 23.8994L46.9235 14.554C47.8598 12.9323 48.1069 11.0371 47.6186 9.21849C47.1294 7.39736 45.9686 5.87835 44.3506 4.9417C43.284 4.32568 42.0779 4 40.8625 4C40.2456 4 39.6261 4.08247 39.0209 4.24573C37.2004 4.73636 35.6849 5.89855 34.7519 7.5177L20.2673 32.6373C19.331 34.259 19.0839 36.1542 19.5722 37.9728C20.0614 39.7939 21.2221 41.3129 22.8393 42.2496C23.5109 42.6367 24.2295 42.9085 24.9759 43.0558L25.5853 43.177V83.1113H16V84H94V83.1113H91.0557ZM90.379 53.1359L86.8724 59.2187L55.295 40.978L55.2639 40.9552C55.2286 40.93 55.2017 40.9165 55.1849 40.909L55.1446 40.8913L37.5937 30.7548L41.1004 24.672L90.3799 53.1351L90.379 53.1359ZM47.6287 61.9613L51.2992 52.3053H58.6848L62.3377 61.9613H47.6287ZM62.6748 62.8525L66.3487 72.5641H43.5992L47.2908 62.8525H62.6739H62.6748ZM51.6346 51.4133L54.995 42.5635L58.3453 51.4133H51.6346ZM23.2848 41.4787C21.8702 40.6624 20.8565 39.3361 20.4312 37.7439C20.0059 36.1508 20.2211 34.4946 21.0372 33.0817L35.5219 7.96289C36.3372 6.54655 37.6626 5.53163 39.2495 5.10665C39.7732 4.96358 40.3162 4.89121 40.8625 4.89121C41.9266 4.89121 42.9798 5.17565 43.9085 5.71341C46.8403 7.40746 47.848 11.1751 46.1552 14.1105L31.6706 39.2292C30.8519 40.6489 29.5273 41.6655 27.9412 42.0914C27.4159 42.2319 26.8771 42.3034 26.34 42.3034C25.2726 42.3034 24.2152 42.0181 23.2839 41.4795L23.2848 41.4787ZM26.4737 83.1113V43.2232L27.1444 43.1467C29.3525 42.8942 31.3319 41.5965 32.4405 39.6761L37.1432 31.5206L54.4461 41.5149L38.6393 83.1113H26.4737ZM39.5883 83.1113L43.2622 73.4553H66.6832L70.3361 83.1113H39.5883ZM82.1512 73.0084V83.1113H71.2859L55.8582 42.3304L86.1227 59.8137V72.5632H82.595C82.3504 72.5632 82.1512 72.7627 82.1512 73.0076V73.0084ZM90.1656 83.1113H83.0413V73.4528H90.1656V83.1113Z" fill="white"/>
<path d="M28.933 36.0388C28.933 34.6308 27.7891 33.4863 26.3838 33.4863C24.9784 33.4863 23.8345 34.6317 23.8345 36.0388C23.8345 37.4458 24.9784 38.5912 26.3838 38.5912C27.7891 38.5912 28.933 37.4458 28.933 36.0388ZM26.3829 37.7505C25.4407 37.7505 24.6741 36.983 24.6741 36.0396C24.6741 35.0962 25.4407 34.3287 26.3829 34.3287C27.3251 34.3287 28.0917 35.0962 28.0917 36.0396C28.0917 36.983 27.3251 37.7505 26.3829 37.7505Z" fill="white"/>
</svg>
